X: 12304
T: Fairy Toddler
R: jig
M: 6/8
K: Dmajor
|:D/E/|F2 F F^EF|DFA dcd|Bcd AFD|EFd cBA|
F2 F F^EF|DF/G/A dcd|1 BdB AFD|EFE D2:|2 B/c/dB AFd|edc d2||
|:f/g/|afd Aff|gec Agg|fed Bcd|efd cBA|
[1 afd Adf|gec Aff|g/a/bg f/g/af|gec d2:|
[2 F2 F F^EF|DF/G/A dcd|B/c/dB AFD|EG/F/E D2||

